application-array.svg

<svg fill="currentColor" viewBox="0 0 24 24"><path d="M21 2H3c-1.1 0-2 .9-2 2v16c0 1.1.9 2 2 2h18c1.1 0 2-.9 2-2V4c0-1.1-.9-2-2-2m-11 9H8v7h2v2H6V9h4zm8 9h-4v-2h2v-7h-2V9h4zm3-13H3V4h18z"/></svg>

<svg  viewBox="0 0 24 24" fill="currentColor"><path  d="M21 2H3C1.9 2 1 2.9 1 4V20C1 21.1 1.9 22 3 22H21C22.1 22 23 21.1 23 20V4C23 2.9 22.1 2 21 2M10 11H8V18H10V20H6V9H10V11M18 20H14V18H16V11H14V9H18V20M21 7H3V4H21V7Z"/></svg>
